svg/archive_plus.svg

<svg xmlns="http://www.w3.org/2000/svg" viewBox="0 0 24 24"><path d="M21 7H3V3h18zm-8 12c0 .7.13 1.37.35 2H4V8h16v5.09c-.33-.05-.66-.09-1-.09-3.31 0-6 2.69-6 6m2-6v-1.5c0-.28-.22-.5-.5-.5h-5c-.28 0-.5.22-.5.5V13zm5 5v-3h-2v3h-3v2h3v3h2v-3h3v-2z"/></svg>

<svg xmlns="http://www.w3.org/2000/svg" id="mdi-archive-plus" viewBox="0 0 24 24"><path d="M21 7H3V3H21V7M13 19C13 19.7 13.13 20.37 13.35 21H4V8H20V13.09C19.67 13.04 19.34 13 19 13C15.69 13 13 15.69 13 19M15 13V11.5C15 11.22 14.78 11 14.5 11H9.5C9.22 11 9 11.22 9 11.5V13H15M20 18V15H18V18H15V20H18V23H20V20H23V18H20Z" /></svg>
